X: 222
T:In illo tempore assumpsit Jesus
N: Derived from Jos1905-In_illo_tempore_assumpsit_Jesus.krn
C: Josquin des Prez
%%abc-version 2.0
%%abcx-abcm2ps-target-version 5.9.1 (29 Sep 2008)
%%abc-creator hum2abc beta
%%abcx-conversion-date 2019/02/12 16:15:49
%%abc-edited-by Jesse Rodin
%%abc-edited-by Joel Chapman 2011/12/23
%%abcx-initial-encoding-date 2011/12/23/
%%humdrum-veritas 4175719785
%%humdrum-veritas-data 2665170497
%%linebreak <none>
%%barnumbers 0
L: 1/4
M: 2/1
Q: 1/2=120
%%staves [1 2 3 4]
V: 1 clef=treble
V: 2 clef=treble-8
V: 3 clef=treble-8
V: 4 clef=bass
K: C
[V:1] z8 | 
[V:2] c8 | 
[V:3] z8 | 
[V:4] z8 | 
[V:1] z8 | 
[V:2] c4A4 | 
[V:3] z8 | 
[V:4] z8 | 
[V:1] G8 | 
[V:2] c6c2 | 
[V:3] z8 | 
[V:4] z8 | 
[V:1] G4E4 | 
[V:2] c4z2g2- | 
[V:3] z8 | 
[V:4] z8 | 
[V:1] G6G2 | 
[V:2] gfe3dc2- | 
[V:3] z8 | 
[V:4] z8 | 
[V:1] G4z2d2- | 
[V:2] c2BAB2G2 | 
[V:3] G8 | 
[V:4] z8 | 
[V:1] dcB3AG2- | 
[V:2] z2g3fe2- | 
[V:3] G4E4 | 
[V:4] z8 | 
[V:1] G2FED4 | 
[V:2] e2dcB4 | 
[V:3] G6G2 | 
[V:4] z8 | 
[V:1] E4z2e2- | 
[V:2] z2e3dc2- | 
[V:3] G8 | 
[V:4] C,8 | 
[V:1] edc4BA | 
[V:2] cBA4GF | 
[V:3] z8 | 
[V:4] C,4A,,4 | 
[V:1] G3FE2e2- | 
[V:2] E2e3dc2- | 
[V:3] z8 | 
[V:4] C,6C,2 | 
[V:1] edc3BA2- | 
[V:2] cBA2G2FG | 
[V:3] c8 | 
[V:4] C,3D,E,2F,2- | 
[V:1] AGFEF4 | 
[V:2] ABc2F3G | 
[V:3] c4A4 | 
[V:4] F,E,D,C,D,3C, | 
[V:1] !fermata!E8- | 
[V:2] A2E2A4 | 
[V:3] c6c2 | 
[V:4] A,,8 | 
[V:1] E8 | 
[V:2] !fermata!G8 | 
[V:3] !fermata!c8 | 
[V:4] !fermata!C,8 | 
[V:1] G4A3B | 
[V:2] c4c4- | 
[V:3] e4f4- | 
[V:4] C,4F,3G, | 
[V:1] c2c2A4 | 
[V:2] c2c2c4 | 
[V:3] f2e2f4 | 
[V:4] A,2A,2F,4 | 
[V:1] G4z2G2 | 
[V:2] c8 | 
[V:3] e4z2e2 | 
[V:4] C,8 | 
[V:1] G2G2A4 | 
[V:2] z2e2e2e2 | 
[V:3] e2e2A4- | 
[V:4] z2C2C2C2 | 
[V:1] c4c4- | 
[V:2] f4a4 | 
[V:3] A4z2c2 | 
[V:4] F,8 | 
[V:1] c2c2c4- | 
[V:2] g2e2f4 | 
[V:3] c2c2F4 | 
[V:4] z2A,2A,2A,2 | 
[V:1] c4c4 | 
[V:2] z2a3ge2 | 
[V:3] f4e2c2 | 
[V:4] F,4A,4 | 
[V:1] A4c4 | 
[V:2] f4e2a2 | 
[V:3] d4c3d | 
[V:4] D,E,F,G,A,3B, | 
[V:1] c8 | 
[V:2] g2f2g4 | 
[V:3] e2f4e2 | 
[V:4] C2F,2C4 | 
[V:1] c4z4 | 
[V:2] z4f4 | 
[V:3] f8 | 
[V:4] F,8 | 
[V:1] c4c4 | 
[V:2] f4f4 | 
[V:3] z8 | 
[V:4] z2F,2F,4 | 
[V:1] c4B4 | 
[V:2] e4d4 | 
[V:3] z8 | 
[V:4] C,4G,4 | 
[V:1] A4A2c2- | 
[V:2] d2f4ed | 
[V:3] z8 | 
[V:4] D,4z4 | 
[V:1] cBA4^G2 | 
[V:2] c2d2B4 | 
[V:3] z8 | 
[V:4] z8 | 
[V:1] A8 | 
[V:2] A8- | 
[V:3] z8 | 
[V:4] z4F,4 | 
[V:1] z8 | 
[V:2] A8 | 
[V:3] c4c4 | 
[V:4] F,4F,4 | 
[V:1] z8 | 
[V:2] z8 | 
[V:3] c4B4 | 
[V:4] E,4D,4 | 
[V:1] z8 | 
[V:2] z2a4gf | 
[V:3] A4A2c2- | 
[V:4] D,2F,4E,D, | 
[V:1] z8 | 
[V:2] e2f2d4 | 
[V:3] cBA4^G2 | 
[V:4] C,2D,2B,,4 | 
[V:1] c8 | 
[V:2] c3de2f2- | 
[V:3] A8 | 
[V:4] A,,4z2A,2 | 
[V:1] c4B4 | 
[V:2] fec2d2e2 | 
[V:3] z8 | 
[V:4] A,2A,2G,4 | 
[V:1] A4A2c2- | 
[V:2] f4e4 | 
[V:3] c8 | 
[V:4] F,3G,A,2A,,2- | 
[V:1] cBA4^G2 | 
[V:2] e8 | 
[V:3] c4B4 | 
[V:4] A,,B,,C,D,E,4 | 
[V:1] A8- | 
[V:2] c4z4 | 
[V:3] A8 | 
[V:4] z4F,4- | 
[V:1] A8- | 
[V:2] f8 | 
[V:3] A8 | 
[V:4] F,4D,4 | 
[V:1] A8 | 
[V:2] d4A4 | 
[V:3] z8 | 
[V:4] D,4F,4- | 
[V:1] z8 | 
[V:2] c6c2 | 
[V:3] z8 | 
[V:4] F,2F,2F,3G, | 
[V:1] z8 | 
[V:2] c8 | 
[V:3] z8 | 
[V:4] A,4z2F,2- | 
[V:1] z8 | 
[V:2] z2c4c2 | 
[V:3] z8 | 
[V:4] F,2F,2E,2F,2 | 
[V:1] z8 | 
[V:2] c2c2c3d | 
[V:3] z8 | 
[V:4] E,2F,4E,D, | 
[V:1] z8 | 
[V:2] e8 | 
[V:3] z4c4- | 
[V:4] C,8 | 
[V:1] c8 | 
[V:2] z8 | 
[V:3] c4A4 | 
[V:4] z8 | 
[V:1] A4A4 | 
[V:2] z8 | 
[V:3] d4f4- | 
[V:4] z8 | 
[V:1] c6c2 | 
[V:2] z8 | 
[V:3] f2f2f4- | 
[V:4] z8 | 
[V:1] c8 | 
[V:2] z4a4- | 
[V:3] f4z2f2- | 
[V:4] z4z2F,2- | 
[V:1] z2c4c2 | 
[V:2] a2a2g2a2 | 
[V:3] f2f2e2f2 | 
[V:4] F,G,A,B,C2F,2 | 
[V:1] c2c2c4- | 
[V:2] g2a4gf | 
[V:3] e2f4ed | 
[V:4] C2F,2A,4- | 
[V:1] c4z4 | 
[V:2] e4A4 | 
[V:3] c8 | 
[V:4] A,4z4 | 
[V:1] A6A2 | 
[V:2] z2A3Bcd | 
[V:3] z8 | 
[V:4] F,6F,2 | 
[V:1] G2A2G2A2- | 
[V:2] e2A2e2A2 | 
[V:3] c8 | 
[V:4] E,2F,2E,2F,2- | 
[V:1] AGFEF4 | 
[V:2] c4F4 | 
[V:3] A4A4 | 
[V:4] F,E,D,C,D,4 | 
[V:1] E2c3BA2 | 
[V:2] G2A3Gc2- | 
[V:3] c6c2 | 
[V:4] C,2A,,2C,3D, | 
[V:1] G2F4E2 | 
[V:2] cBA2G4 | 
[V:3] c4z2c2- | 
[V:4] E,2F,2C,4 | 
[V:1] F2A2G2c2- | 
[V:2] F2c3def | 
[V:3] c2c2c2c2 | 
[V:4] z2A,,2C,3D, | 
[V:1] cBA2G4 | 
[V:2] g2f4e2 | 
[V:3] c8 | 
[V:4] E,2F,2C,4 | 
[V:1] A4z4 | 
[V:2] f8 | 
[V:3] z4c4 | 
[V:4] F,8 | 
[V:1] c4c4- | 
[V:2] z8 | 
[V:3] c6A2 | 
[V:4] z4F,4 | 
[V:1] c2A2A4- | 
[V:2] f4f4- | 
[V:3] A8 | 
[V:4] F,6D,2 | 
[V:1] A4d4- | 
[V:2] f2d2d4- | 
[V:3] d6B2 | 
[V:4] D,8 | 
[V:1] d2B2B4 | 
[V:2] d4g4- | 
[V:3] B4B4 | 
[V:4] G,6E,2 | 
[V:1] B4e4- | 
[V:2] g2e2e4 | 
[V:3] e8 | 
[V:4] E,4E,4 | 
[V:1] e4c4- | 
[V:2] e4a4- | 
[V:3] c8 | 
[V:4] A,8 | 
[V:1] c4z4 | 
[V:2] a4f4 | 
[V:3] z4c4 | 
[V:4] F,8 | 
[V:1] c4c4- | 
[V:2] z8 | 
[V:3] c6A2 | 
[V:4] z4F,4 | 
[V:1] c2A2A2A2- | 
[V:2] f4f4- | 
[V:3] A2A4A2 | 
[V:4] F,6D,2 | 
[V:1] A2A2d4- | 
[V:2] f2d2d2d2- | 
[V:3] d8 | 
[V:4] D,2D,4D,2 | 
[V:1] d4B4 | 
[V:2] d2d2g4- | 
[V:3] B4B4 | 
[V:4] G,8 | 
[V:1] B4e4- | 
[V:2] g4e4 | 
[V:3] e8 | 
[V:4] E,4E,4 | 
[V:1] e4c4- | 
[V:2] e4a4- | 
[V:3] c8 | 
[V:4] A,8 | 
[V:1] c2A2A4- | 
[V:2] a4f4- | 
[V:3] c4d4 | 
[V:4] F,8- | 
[V:1] A4-A4 | 
[V:2] f4z2f2 | 
[V:3] c8 | 
[V:4] F,8 | 
[V:1] z2c2c2c2 | 
[V:2] f2f2f2f2 | 
[V:3] z8 | 
[V:4] z8 | 
[V:1] c2c2c4 | 
[V:2] f4e2f2 | 
[V:3] z8 | 
[V:4] z8 | 
[V:1] B2c4BA | 
[V:2] gfedc2e2- | 
[V:3] z8 | 
[V:4] z8 | 
[V:1] G2A4^G2 | 
[V:2] e2dcB4 | 
[V:3] z8 | 
[V:4] z8 | 
[V:1] A8- | 
[V:2] A8 | 
[V:3] z8 | 
[V:4] z4z2F,2 | 
[V:1] A8 | 
[V:2] z8 | 
[V:3] z2c2c2c2 | 
[V:4] F,2F,2F,2F,2 | 
[V:1] z8 | 
[V:2] a4g2fe | 
[V:3] c2c2c4 | 
[V:4] F,4E,2F,2 | 
[V:1] z8 | 
[V:2] d2e4dc | 
[V:3] B2c4BA | 
[V:4] G,F,E,D,C,2E,2- | 
[V:1] z8 | 
[V:2] B2c2d4 | 
[V:3] G2A4^G2 | 
[V:4] E,2D,C,B,,4 | 
[V:1] z8 | 
[V:2] c8 | 
[V:3] A8- | 
[V:4] A,,8 | 
[V:1] z2c2c2c2 | 
[V:2] z8 | 
[V:3] A8- | 
[V:4] z2A,2C3B, | 
[V:1] c3BAGF2- | 
[V:2] z2f2f2f2 | 
[V:3] A8- | 
[V:4] A,G,F,3E,D,C, | 
[V:1] FEDCD4 | 
[V:2] f2f2f4 | 
[V:3] A8 | 
[V:4] D,4D,4 | 
[V:1] C3DE2F2- | 
[V:2] e3dcBA2- | 
[V:3] z2c2c2c2 | 
[V:4] A,,8 | 
[V:1] F2E4D2 | 
[V:2] AGFEF4 | 
[V:3] c4F4 | 
[V:4] C,4D,4 | 
[V:1] E8 | 
[V:2] E8 | 
[V:3] c6c2 | 
[V:4] A,,8 | 
[V:1] z4c4 | 
[V:2] z8 | 
[V:3] c8 | 
[V:4] z4A,4 | 
[V:1] c6c2 | 
[V:2] z4e4 | 
[V:3] z2c2c2c2 | 
[V:4] A,6A,2 | 
[V:1] c4A4 | 
[V:2] e2e2f4 | 
[V:3] c4d4 | 
[V:4] A,4D,4 | 
[V:1] c6c2 | 
[V:2] e4a4- | 
[V:3] c3de2f2 | 
[V:4] A,6F,2 | 
[V:1] c4z2A2 | 
[V:2] a2f2f4 | 
[V:3] c4z2c2 | 
[V:4] F,4z2F,2 | 
[V:1] G2A2c4 | 
[V:2] z2f2e2f2 | 
[V:3] c2c2c4 | 
[V:4] E,2F,2A,4 | 
[V:1] c4z2A2 | 
[V:2] a4f4 | 
[V:3] c4z2c2 | 
[V:4] F,4z2F,2 | 
[V:1] G2A2c4 | 
[V:2] z2f2e2f2 | 
[V:3] c2c2c4 | 
[V:4] E,2F,2A,4 | 
[V:1] c4z2A2- | 
[V:2] a4f4 | 
[V:3] c4z2c2- | 
[V:4] F,4z2F,2- | 
[V:1] A2G2A2A2 | 
[V:2] z4z2f2- | 
[V:3] c2c2c2c2 | 
[V:4] F,2E,2F,2F,2 | 
[V:1] c4A3B | 
[V:2] f2e2f2f2 | 
[V:3] c8 | 
[V:4] A,4F,2A,2- | 
[V:1] c2A2cBcd | 
[V:2] a4f4 | 
[V:3] c8- | 
[V:4] A,G,F,4E,D, | 
[V:1] e8 | 
[V:2] z4g4 | 
[V:3] c8 | 
[V:4] C,4z4 | 
[V:1] z8 | 
[V:2] g6e2 | 
[V:3] z4c4 | 
[V:4] C,4C,4- | 
[V:1] c4c4- | 
[V:2] e4c3d | 
[V:3] c6A2 | 
[V:4] C,2A,,2A,,3B,, | 
[V:1] c2A2A4 | 
[V:2] e2f2e2c2 | 
[V:3] A4A3B | 
[V:4] C,2D,2A,,2F,2- | 
[V:1] A3Bc2d2- | 
[V:2] z2f2e2de | 
[V:3] c2d2e2f2- | 
[V:4] F,E,D,2A,2D,2 | 
[V:1] dcc4B2 | 
[V:2] fgafg4 | 
[V:3] fedcd4 | 
[V:4] A,4G,4 | 
[V:1] c8- | 
[V:2] z4g4 | 
[V:3] c8 | 
[V:4] C,4z4 | 
[V:1] c8 | 
[V:2] g6e2 | 
[V:3] z8 | 
[V:4] C4C4- | 
[V:1] z8 | 
[V:2] e6c2 | 
[V:3] c4c4- | 
[V:4] C2A,2A,4- | 
[V:1] z8 | 
[V:2] c4f4 | 
[V:3] c2A2A4 | 
[V:4] A,2F,2F,2F,2 | 
[V:1] z8 | 
[V:2] e3dcBA2- | 
[V:3] A3Bc2d2- | 
[V:4] C3B,A,G,F,2- | 
[V:1] z4f4 | 
[V:2] AGFEF3G | 
[V:3] dcc4B2 | 
[V:4] F,E,D,C,D,4 | 
[V:1] e3dcBA2- | 
[V:2] G4A4 | 
[V:3] c4z4 | 
[V:4] C,4F,4 | 
[V:1] AGFEF4 | 
[V:2] z4a4 | 
[V:3] c4c4- | 
[V:4] F,8 | 
[V:1] E8- | 
[V:2] g3fedc2- | 
[V:3] c4c4- | 
[V:4] C,8- | 
[V:1] E8- | 
[V:2] cBAGA4 | 
[V:3] c8- | 
[V:4] C,8- | 
[V:1] E8 |]  
[V:2] G8 |]  
[V:3] c8 |]  
[V:4] C,8 |]  



